icon-svg/stage-backlight.svg

<svg xmlns="http://www.w3.org/2000/svg" fill="#44739e" viewBox="0 0 24 24"><path d="M6.27 2.289a2.936 2.936 0 0 0-2.159 2.035A37.9 37.9 0 0 0 4.1 9.842c.045 0 .491-.086.992-.188L6 9.467l.023-2.334c.027-2.711.016-2.652.584-2.938L6.8 4.1H12c5.737 0 5.316-.019 5.64.256s.308.2.334 2.776L18 9.467l.91.187c.5.1.947.187.992.188a37.9 37.9 0 0 0-.01-5.518 2.927 2.927 0 0 0-2.177-2.037c-.551-.132-10.9-.13-11.442 0m2.515 4.2c-.079.318-.289 1.156-.466 1.862L8 9.637l-.507.475-.507.474-2.486.465-2.485.466v3.754A31.9 31.9 0 0 0 2.071 19l2.415-.9c1.3-.487 2.4-.893 2.45-.9.069-.014.22.1.577.438l.487.45.322 1.283c.177.705.387 1.543.466 1.861l.145.579h6.14l.145-.579c.079-.318.289-1.156.466-1.861L16 18.088l.484-.455c.357-.337.508-.452.577-.438.051.009 1.154.415 2.45.9l2.418.905a31.9 31.9 0 0 0 .058-3.732v-3.751l-2.487-.466-2.485-.465-.507-.474L16 9.637l-.322-1.283c-.177-.706-.387-1.544-.466-1.862l-.145-.579H8.93l-.145.579m4.2 5.182c2.541.608 3.471 3.2 1.83 5.091-2.094 2.419-6.41 1.1-6.428-1.964-.012-2.149 2.253-3.689 4.6-3.127"/></svg>

<?xml version="1.0" encoding="UTF-8"?>
<svg width="24px" fill="#44739e" height="24px" viewBox="0 0 24 24" version="1.1" xmlns="http://www.w3.org/2000/svg" xmlns:xlink="http://www.w3.org/1999/xlink">
            <path d="M 6.27,2.289 A 2.936,2.936 0 0 0 4.111,4.324 37.876,37.876 0 0 0 4.1,9.842 c 0.045,0 0.491,-0.086 0.992,-0.188 L 6,9.467 6.023,7.133 C 6.05,4.422 6.039,4.481 6.607,4.195 L 6.8,4.1 H 12 c 5.737,0 5.316,-0.019 5.64,0.256 0.324,0.275 0.308,0.2 0.334,2.776 L 18,9.467 18.91,9.654 c 0.5,0.1 0.947,0.187 0.992,0.188 A 37.876,37.876 0 0 0 19.892,4.324 2.927,2.927 0 0 0 17.715,2.287 c -0.551,-0.132 -10.9,-0.13 -11.442,0 m 2.515,4.2 C 8.709,6.805 8.499,7.643 8.322,8.349 L 8,9.637 7.493,10.112 6.986,10.586 4.5,11.051 2.015,11.517 v 3.754 A 31.9,31.9 0 0 0 2.071,19 l 2.415,-0.9 c 1.3,-0.487 2.4,-0.893 2.45,-0.9 0.069,-0.014 0.22,0.1 0.577,0.438 L 8,18.088 8.322,19.371 c 0.177,0.705 0.387,1.543 0.466,1.861 l 0.145,0.579 h 6.14 l 0.145,-0.579 c 0.079,-0.318 0.289,-1.156 0.466,-1.861 L 16,18.088 16.484,17.633 c 0.357,-0.337 0.508,-0.452 0.577,-0.438 0.051,0.009 1.154,0.415 2.45,0.9 L 21.929,19 a 31.9,31.9 0 0 0 0.058,-3.732 V 11.517 L 19.5,11.051 17.015,10.586 16.508,10.112 16,9.637 15.678,8.354 C 15.501,7.648 15.291,6.81 15.212,6.492 L 15.067,5.913 H 8.93 L 8.785,6.492 m 4.2,5.182 c 2.541,0.608 3.471,3.2 1.83,5.091 -2.094,2.419 -6.41,1.1 -6.428,-1.964 -0.012,-2.149 2.253,-3.689 4.6,-3.127"/>

</svg>
